build/svg/cmd/sc_neutralcellstyle.svg

<?xml version="1.0" encoding="UTF-8" standalone="no"?>
<svg
   xmlns:dc="http://purl.org/dc/elements/1.1/"
   xmlns:cc="http://creativecommons.org/ns#"
   xmlns:rdf="http://www.w3.org/1999/02/22-rdf-syntax-ns#"
   xmlns:svg="http://www.w3.org/2000/svg"
   xmlns="http://www.w3.org/2000/svg"
   xmlns:sodipodi="http://sodipodi.sourceforge.net/DTD/sodipodi-0.dtd"
   xmlns:inkscape="http://www.inkscape.org/namespaces/inkscape"
   viewBox="0 0 16 16"
   version="1.1"
   id="svg8"
   sodipodi:docname="sc_neutralcellstyle.svg"
   inkscape:export-filename="/home/jupiter007/Libreoffice yaru theme fullcolor/build/cmd/sc_neutralcellstyle.png"
   inkscape:export-xdpi="95"
   inkscape:export-ydpi="95"
   inkscape:version="0.92.5 (2060ec1f9f, 2020-04-08)">
  <metadata
     id="metadata14">
    <rdf:RDF>
      <cc:Work
         rdf:about="">
        <dc:format>image/svg+xml</dc:format>
        <dc:type
           rdf:resource="http://purl.org/dc/dcmitype/StillImage" />
      </cc:Work>
    </rdf:RDF>
  </metadata>
  <defs
     id="defs12" />
  <sodipodi:namedview
     pagecolor="#ffffff"
     bordercolor="#666666"
     borderopacity="1"
     objecttolerance="10"
     gridtolerance="10"
     guidetolerance="10"
     inkscape:pageopacity="0"
     inkscape:pageshadow="2"
     inkscape:window-width="1920"
     inkscape:window-height="1011"
     id="namedview10"
     showgrid="true"
     inkscape:zoom="29.5"
     inkscape:cx="8.4232274"
     inkscape:cy="5.4692212"
     inkscape:window-x="1920"
     inkscape:window-y="32"
     inkscape:window-maximized="1"
     inkscape:current-layer="svg8">
    <inkscape:grid
       type="xygrid"
       id="grid821" />
  </sodipodi:namedview>
  <path
     style="fill:#000000;stroke:#000000;opacity:0.6;stroke-width:2;stroke-miterlimit:4;stroke-dasharray:none;stroke-linejoin:round"
     id="path828"
     d="M 11 3 C 9.343146 3 8 4.3431458 8 6 L 8 10 C 8 11.656854 9.343146 13 11 13 C 12.656854 13 14 11.656854 14 10 L 14 6 C 14 4.3431458 12.656854 3 11 3 z M 11 5 C 11.552284 5 12 5.6715729 12 6.5 L 12 9.5 C 12 10.328427 11.552284 11 11 11 C 10.447715 11 10 10.328427 10 9.5 L 10 6.5 C 10 5.6715729 10.447715 5 11 5 z " />
  <path
     d="M 11 3 C 9.343146 3 8 4.3431458 8 6 L 8 10 C 8 11.656854 9.343146 13 11 13 C 12.656854 13 14 11.656854 14 10 L 14 6 C 14 4.3431458 12.656854 3 11 3 z M 11 5 C 11.552284 5 12 5.6715729 12 6.5 L 12 9.5 C 12 10.328427 11.552284 11 11 11 C 10.447715 11 10 10.328427 10 9.5 L 10 6.5 C 10 5.6715729 10.447715 5 11 5 z "
     id="path825"
     style="fill:#ffffff" />
  <path
     d="m 0,10 h 6 v 2 H 0 Z"
     id="path6"
     inkscape:connector-curvature="0"
     style="fill:#c7162b;stroke-width:1.54919326" />
  <path
     d="M 2,3 V 5 H 0 V 7 H 2 V 9 H 4 V 7 H 6 V 5 H 4 V 3 Z"
     id="path4"
     inkscape:connector-curvature="0"
     style="fill:#0e8420"
     sodipodi:nodetypes="ccccccccccccc" />
</svg>

<svg xmlns="http://www.w3.org/2000/svg" viewBox="0 0 16 16"><path d="M11 3a3 3 0 00-3 3v4a3 3 0 006 0V6a3 3 0 00-3-3zm0 2c.552 0 1 .672 1 1.5v3c0 .828-.448 1.5-1 1.5s-1-.672-1-1.5v-3c0-.828.448-1.5 1-1.5z" stroke="#000" opacity=".6" stroke-width="2" stroke-linejoin="round"/><path d="M11 3a3 3 0 00-3 3v4a3 3 0 006 0V6a3 3 0 00-3-3zm0 2c.552 0 1 .672 1 1.5v3c0 .828-.448 1.5-1 1.5s-1-.672-1-1.5v-3c0-.828.448-1.5 1-1.5z" fill="#fff"/><path d="M0 10h6v2H0z" fill="#c7162b"/><path d="M2 3v2H0v2h2v2h2V7h2V5H4V3z" fill="#0e8420"/></svg>
